X: 131
T:James Winder's Quick March. JaW.131
M:6/8
Q:120
S:James Winder Ms, Lancashire, 1835-41
R:Quickstep
O:England
A:Wyresdale,Lancashire
N:At head it has James Winder, then Quick march, not necessarily claiming
N:composership.
H:1/8
Z:vmp.Chris Partington, Aug 2004
K:C
G|c2c e2c|d2B GAB|c2c ece|f3 d2B|!
c2c cBA|B2c def|A2d BGB|c2c c2:|!
|:g|c'2g c'bd'|c'2a g2e|c2c ceg|a2e d2g|!
c'2g c'bd'|c'2a g2e|G2G GAB|c2c ceg|!
c'2g c'bd'|c'2a g2e|c2c ceg|a2d dgf|!
e2g g2c'|f2a a2f|gec GAB|c2c c2:|]
